X:60
T:An Dro #1
M:4/4
L:1/8
S:Claus Steinort, Ir-Trad, 3/97
R:Reel
N:Session in Doolin: Michael Queally, Noel O'Donoghue, Tola Custy, Cyril
N:O'Donoghue
K:D
fedc d2Ad|BAGB A3G|~F3G A2BA|GABG ~E3g|
fedc d2Ad|BAGB A3G|~F3G A2BA|GFEF D4:|
DEFG ADDA|BDDB ADDA|BDDB ADDA|GABG ~E3F|
DEFG ADDA|BDDB ~A3G|~F3G A2BA|GFEF D4:|

